Obsidian-Light/status/scalable/user-offline-symbolic.svg

<?xml version="1.0" encoding="UTF-8" standalone="no"?>
<!-- Created with Inkscape (http://www.inkscape.org/) -->

<svg
   xmlns:dc="http://purl.org/dc/elements/1.1/"
   xmlns:cc="http://creativecommons.org/ns#"
   xmlns:rdf="http://www.w3.org/1999/02/22-rdf-syntax-ns#"
   xmlns:svg="http://www.w3.org/2000/svg"
   xmlns="http://www.w3.org/2000/svg"
   xmlns:xlink="http://www.w3.org/1999/xlink"
   xmlns:sodipodi="http://sodipodi.sourceforge.net/DTD/sodipodi-0.dtd"
   xmlns:inkscape="http://www.inkscape.org/namespaces/inkscape"
   width="16"
   height="16"
   id="svg2"
   sodipodi:version="0.32"
   inkscape:version="0.48.1 r9760"
   version="1.0"
   sodipodi:docname="user-offline-symbolic.svg"
   inkscape:output_extension="org.inkscape.output.svg.inkscape">
  <defs
     id="defs4">
    <inkscape:perspective
       sodipodi:type="inkscape:persp3d"
       inkscape:vp_x="0 : 8 : 1"
       inkscape:vp_y="0 : 1000 : 0"
       inkscape:vp_z="16 : 8 : 1"
       inkscape:persp3d-origin="8 : 5.3333333 : 1"
       id="perspective18" />
    <linearGradient
       id="StandardGradient"
       gradientTransform="scale(1.1389662,0.8779892)"
       x1="6.4706173"
       y1="7.6491265"
       x2="6.4706173"
       y2="18.248226"
       gradientUnits="userSpaceOnUse">
      <stop
         style="stop-color:#000000;stop-opacity:0.86274511;"
         offset="0"
         id="stop3283" />
      <stop
         style="stop-color:#000000;stop-opacity:0.47058824;"
         offset="1"
         id="stop3285" />
    </linearGradient>
    <inkscape:perspective
       id="perspective3648"
       inkscape:persp3d-origin="0.5 : 0.33333333 : 1"
       inkscape:vp_z="1 : 0.5 : 1"
       inkscape:vp_y="0 : 1000 : 0"
       inkscape:vp_x="0 : 0.5 : 1"
       sodipodi:type="inkscape:persp3d" />
    <linearGradient
       inkscape:collect="always"
       xlink:href="#StandardGradient"
       id="linearGradient3629"
       gradientUnits="userSpaceOnUse"
       gradientTransform="matrix(1.1389662,0,0,0.8779892,-20,0)"
       x1="6.4706173"
       y1="7.6491265"
       x2="6.4706173"
       y2="18.248226" />
    <clipPath
       clipPathUnits="userSpaceOnUse"
       id="clipPath3636">
      <path
         style="fill:#ff00ff;fill-opacity:1;stroke:none;display:inline"
         d="m -19.535739,2.999982 0,16 16.0000003,0 0,-16 -16.0000003,0 z m 12.0625003,3.71875 1.9375,1.9375 -7.3437503,7.3125 -4.65625,-4.625 1.9375,-1.9375 2.71875,2.6875 5.4062503,-5.375 z"
         id="path3638" />
    </clipPath>
    <inkscape:perspective
       id="perspective2903"
       inkscape:persp3d-origin="0.5 : 0.33333333 : 1"
       inkscape:vp_z="1 : 0.5 : 1"
       inkscape:vp_y="0 : 1000 : 0"
       inkscape:vp_x="0 : 0.5 : 1"
       sodipodi:type="inkscape:persp3d" />
    <linearGradient
       inkscape:collect="always"
       xlink:href="#linearGradient4081"
       id="linearGradient3675"
       x1="13"
       y1="18"
       x2="13"
       y2="3.9643312"
       gradientUnits="userSpaceOnUse" />
    <linearGradient
       id="linearGradient4081">
      <stop
         style="stop-color:#aaaaaa;stop-opacity:1;"
         offset="0"
         id="stop4083" />
      <stop
         style="stop-color:#f0f0f0;stop-opacity:1;"
         offset="1"
         id="stop4085" />
    </linearGradient>
    <linearGradient
       inkscape:collect="always"
       xlink:href="#StandardGradient"
       id="linearGradient3638"
       gradientUnits="userSpaceOnUse"
       gradientTransform="translate(-2.5357387,0.999982)"
       x1="9"
       y1="5"
       x2="9"
       y2="18" />
    <linearGradient
       inkscape:collect="always"
       xlink:href="#StandardGradient"
       id="linearGradient3640"
       gradientUnits="userSpaceOnUse"
       gradientTransform="translate(-3,-3)"
       x1="9"
       y1="5"
       x2="9"
       y2="18" />
    <linearGradient
       inkscape:collect="always"
       xlink:href="#StandardGradient"
       id="linearGradient3645"
       gradientUnits="userSpaceOnUse"
       gradientTransform="translate(-3,-2)"
       x1="9"
       y1="5"
       x2="9"
       y2="18" />
    <linearGradient
       inkscape:collect="always"
       xlink:href="#StandardGradient"
       id="linearGradient3649"
       gradientUnits="userSpaceOnUse"
       gradientTransform="translate(-2.5357387,-1.8e-5)"
       x1="9"
       y1="5"
       x2="9"
       y2="18" />
    <linearGradient
       inkscape:collect="always"
       xlink:href="#StandardGradient"
       id="linearGradient3654"
       gradientUnits="userSpaceOnUse"
       gradientTransform="translate(-22.535739,-1.8e-5)"
       x1="9"
       y1="5"
       x2="9"
       y2="18" />
    <clipPath
       clipPathUnits="userSpaceOnUse"
       id="clipPath3661">
      <path
         style="fill:#ff00ff;fill-opacity:1;stroke:none;display:inline"
         d="m -19.535739,2.999982 0,16 16.0000003,0 0,-16 -16.0000003,0 z m 8,2 c 3.8659933,0 7.0000003,2.4101491 7.0000003,6 0,1.485565 -0.534328,2.342799 -1.4375,3.4375 l 1.4375,3.5625 -4.03125,-1.625 c -0.903657,0.395035 -1.9037933,0.625 -2.9687503,0.625 -3.865993,0 -7,-2.410149 -7,-6 0,-3.5898509 3.134007,-6 7,-6 z"
         id="path3663" />
    </clipPath>
    <linearGradient
       inkscape:collect="always"
       xlink:href="#StandardGradient"
       id="linearGradient2866"
       gradientUnits="userSpaceOnUse"
       gradientTransform="translate(-2.5357387,0.999982)"
       x1="9"
       y1="5"
       x2="9"
       y2="18" />
    <linearGradient
       inkscape:collect="always"
       xlink:href="#StandardGradient"
       id="linearGradient2868"
       gradientUnits="userSpaceOnUse"
       gradientTransform="translate(-3,-3)"
       x1="9"
       y1="5"
       x2="9"
       y2="18" />
    <linearGradient
       inkscape:collect="always"
       xlink:href="#StandardGradient"
       id="linearGradient3646"
       gradientUnits="userSpaceOnUse"
       gradientTransform="translate(-3,-2)"
       x1="9"
       y1="5"
       x2="9"
       y2="18" />
    <linearGradient
       inkscape:collect="always"
       xlink:href="#StandardGradient"
       id="linearGradient3650"
       gradientUnits="userSpaceOnUse"
       gradientTransform="translate(-2.5357387,-1.8e-5)"
       x1="9"
       y1="5"
       x2="9"
       y2="18" />
    <linearGradient
       inkscape:collect="always"
       xlink:href="#StandardGradient"
       id="linearGradient3655"
       gradientUnits="userSpaceOnUse"
       gradientTransform="translate(-22.535739,-1.8e-5)"
       x1="9"
       y1="5"
       x2="9"
       y2="18" />
    <clipPath
       clipPathUnits="userSpaceOnUse"
       id="clipPath3662">
      <path
         style="fill:#ff00ff;fill-opacity:1;stroke:none;display:inline"
         d="m -19.535739,2.999982 0,16 16.0000003,0 0,-16 -16.0000003,0 z m 8,2 c 3.8659936,0 7.0000003,2.4101491 7.0000003,6 0,1.485565 -0.534328,2.342799 -1.4375,3.4375 l 1.4375,3.5625 -4.03125,-1.625 c -0.903657,0.395035 -1.9037933,0.625 -2.9687503,0.625 -3.865993,0 -7,-2.410149 -7,-6 0,-3.5898509 3.134007,-6 7,-6 z m -2,2 -2,2 2,2 -2,2 2,2 2,-2 2.0000003,2 2,-2 -2,-2 2,-2 -2,-2 -2.0000003,2 -2,-2 z"
         id="path3664" />
    </clipPath>
  </defs>
  <sodipodi:namedview
     id="base"
     pagecolor="#ffffff"
     bordercolor="#9a9a9a"
     borderopacity="1"
     inkscape:pageopacity="0.0"
     inkscape:pageshadow="2"
     inkscape:zoom="22.762856"
     inkscape:cx="9.6894649"
     inkscape:cy="4.3134293"
     inkscape:document-units="px"
     inkscape:current-layer="layer3"
     showgrid="true"
     inkscape:showpageshadow="false"
     showguides="true"
     inkscape:guide-bbox="true"
     inkscape:window-width="1920"
     inkscape:window-height="1028"
     inkscape:window-x="0"
     inkscape:window-y="25"
     inkscape:window-maximized="1">
    <sodipodi:guide
       orientation="1,0"
       position="0,112"
       id="guide2383" />
    <sodipodi:guide
       orientation="0,1"
       position="26.278146,128"
       id="guide2385" />
    <sodipodi:guide
       orientation="1,0"
       position="128,54.082119"
       id="guide2387" />
    <sodipodi:guide
       orientation="0,1"
       position="78.156291,0"
       id="guide2389" />
    <inkscape:grid
       type="xygrid"
       id="grid3672"
       visible="true"
       enabled="true" />
  </sodipodi:namedview>
  <metadata
     id="metadata7">
    <rdf:RDF>
      <cc:Work
         rdf:about="">
        <dc:format>image/svg+xml</dc:format>
        <dc:type
           rdf:resource="http://purl.org/dc/dcmitype/StillImage" />
      </cc:Work>
    </rdf:RDF>
  </metadata>
  <g
     inkscape:groupmode="layer"
     id="layer3"
     inkscape:label="Cross"
     style="display:inline"
     transform="translate(-0.4642613,-2.999982)">
    <path
       style="fill:#bebebe;fill-opacity:1;stroke:none;display:inline;opacity:0.45"
       d="M 8 2 C 4.1340071 2 1 4.4101491 1 8 C 1 11.589851 4.1340071 14 8 14 C 9.064957 14 10.065093 13.770035 10.96875 13.375 L 15 15 L 13.5625 11.4375 C 14.465672 10.342799 15 9.485565 15 8 C 15 4.4101491 11.865993 2 8 2 z M 6 4 L 8 6 L 10 4 L 12 6 L 10 8 L 12 10 L 10 12 L 8 10 L 6 12 L 4 10 L 6 8 L 4 6 L 6 4 z "
       transform="translate(0.4642613,2.999982)"
       id="path2892" />
  </g>
</svg>

<svg height="16" width="16" xmlns="http://www.w3.org/2000/svg"><path d="m8 2c-3.8659929 0-7 2.4101491-7 6 0 3.589851 3.1340071 6 7 6 1.064957 0 2.065093-.229965 2.96875-.625l4.03125 1.625-1.4375-3.5625c.903172-1.094701 1.4375-1.951935 1.4375-3.4375 0-3.5898509-3.134007-6-7-6zm-2 2 2 2 2-2 2 2-2 2 2 2-2 2-2-2-2 2-2-2 2-2-2-2z" fill="#bebebe" opacity=".45"/></svg>
